X: 16273
T: Grey Day Light
R: reel
M: 4/4
K: Dmajor
D2 FD ADFD|EFED =c2 ce|D2 FD ADFD|EEdc d2 df|
D2 FD ADFD|EFED =c2 ce|dcBd AGFA|EEdc d2 df||
Adfd gefd|efed c3 e|Adfd gefd|geaf d2 df|
Adfd gefd|efed =c3 e|dcBd AGFA|Edce d2 d2||

